X:41
T:Big Timber
C:Bull Hamilton
A:Big Timber
N:Transcribed by Mike Stangeland
R:bluegrass
L:1/8
Q:1/4=240
M:4/4
K:F
z6 A=B |: "D7 (no 3rd)"=Bc cc BA G2 | GA AA AA A=B | =Bc cc BA {d}e2 | d2 dd dd A=B | 
"C"=Bc cc BA G2 | "A"GA AA AA AA | AD GD FD EF |1 D2 DD DA A=B :|2 D2 DD D3A | 
|: "Dm"de fe de fe | "C"ce ge fe de | "Dm"de fe de fe | df fd "A"g2 gg | "Dm"de fe de fe | 
"C"ce ge fe de | gf ed cA GF |1 E"A"C EF "Dm"D3A :|2 E"A"C EF "Dm"D4 | 

